X:1
T:I lift mine eyes to Sion hill
T:Joseph Key
T:p39, Five Anthems, Four Collects ... Book III. Nuneaton: [1785]
T:Edition released into the public domain, March 2010. As such, it may be freely copied and performed.
T:I lift mine eyes to Sion hill
T:PSALM CXXI
C:Joseph Key
Z:p39, Five Anthems, Four
Z:Collects ... Book III.
Z:Nuneaton: [1785]
%%score [ 1 2 3 4 ]
L:1/8
M:3/4
K:G
V:1 treble nm="Soprano" snm="S."
V:2 treble nm="Alto" snm="A."
V:3 treble-8 transpose=-12 nm="Tenor" snm="T."
V:4 bass nm="Bass" snm="B."
V:1
 (G>A) | (B>c BA) G2 | (d>e dc) B2 | (e>d e2) f2 | g4 (d3/2e/4f/4) | (e2 d2) c2 | (B2 A2) G2 | %7
w: I _|lift _ _ _ mine|eyes _ _ _ to|Si- * * on|hill, From _ _|whence _ I|do _ at-|
 A4 A2 | (B2 ^c2) (d>f) | (ef/g/ f2) Te2 | d4 |:[M:2/4]"^Brisk" z2 B2 | (Bc) (dB) | c2 (cB) | %14
w: tend, Till|suc- * cour _|God _ _ _ me|send:|The|migh- * ty _|God me _|
 A2 A2 | A2 B2 | B2 B2 | c2 d2 | e2 (Bc) | d4 | z2 F2 | G3 A | (BA) G2 | A4 | z2 A2 | (GB) (cA) | %26
w: suc- cour|will, the|migh- ty|God me|suc- cour _|will,|Who|heav’n and|earth _ did|frame,|And|all _ things _|
 G2 TF2 | G4 :| %28
w: there- in|name.|
"^Thy foot from slip he will preserve,And will thee safely keep;For he doth never sleep:Lo, he that Israel doth conserve,Sleep never can surprise,Nor slumber close his eyes.The Lord thy keeper is always,On thy right hand is heA shade to cover thee:The sun shall not thee parch by dayNor moon, scarce half so bright,With cold thee hurt by night.The Lord will keep thee from distress,And will thy life sure save:Yea, thou shalt also haveIn all thy business good success;When thou goest in or outHe'll compass thee about." z4 | %29
w: |
 z4 | %30
w: |
V:2
 z2 | z6 | z6 | z6 | z6 | z6 | z6 | z6 | z6 | z6 | z4 |:[M:2/4] z2 G2 | G2 G2 | G2 E2 | E2 F2 | %15
w: |||||||||||The|migh- ty|God me|suc- cour|
 F2 G2 | G2 G2 | G2 G2 | (EF) G2 | F4 | z2 D2 | D3 D | D2 E2 | F4 | z2 D2 | D2 E2 | D2 (DC) | %27
w: will, the|migh- ty|God me|suc- * cour|will,|Who|heav’n and|earth did|frame,|And|all things|there- in _|
 B,4 :|"^Instrument change" z4 | z4 | %30
w: name.|||
V:3
 z2 | z6 | z6 | z6 | z6 | z6 | z6 | z6 | z6 | z6 | z4 |:[M:2/4] z2 d2 | (dc) B2 | e2 (ed) | %14
w: |||||||||||The|migh- * ty|God me _|
 (^cB) A2 | d2 (dc) | (Bc) d2 | e2 d2 | c2 TB2 | A4 | z2 A2 | B3 A | (GA) (B^c) | d4 | z2 (dc) | %25
w: suc- * cour|will, the _|migh- * ty|God me|suc- cour|will,|Who|heav’n and|earth _ did _|frame,|And _|
 (BG) (ec) | B2 TA2 | G4 :|"^Instrument change" z4 | z4 | %30
w: all _ things _|there- in|name.|||
V:4
 G,2 | (G,>A, G,F,) E,2 | D,4 G,2 | C4 D2 | G,4 G,2 | (C2 B,2) A,2 | (G,2 F,2) E,2 | D,4 D,2 | %8
w: I|lift _ _ _ mine|eyes to|Si- on|hill, From|whence _ I|do _ at-|tend, Till|
 (G,2 A,2) B,2 | (G,2 A,2) A,,2 | D,4 |:[M:2/4] z2 G,2 | G,2 G,2 | C,2 A,2 | (A,G,) (F,E,) | %15
w: suc- * cour|God _ me|send:|The|migh- ty|God me|suc- * cour _|
 D,2 G,2 | G,2 G,2 | C2 B,2 | A,2 G,2 | D,4 | z2 D,2 | G,3 F, | (G,F,) E,2 | D,4 | z2 D,2 | %25
w: will, the|migh- ty|God me|suc- cour|will,|Who|heav’n and|earth _ did|frame,|And|
 G,2 C,2 | D,2 D,2 | G,,4 :| %28
w: all things|there- in|name.|
"^The first verse only of the text is given in the source: subsequent verses have been editorially provided above.The alto part is notated in the treble clef at the upper octave in the source." z4 | %29
w: |
 z4 | %30
w: |

